justvector/behance.svg

<?xml version="1.0" encoding="iso-8859-1"?>
<!-- Generator: Adobe Illustrator 15.0.0, SVG Export Plug-In . SVG Version: 6.00 Build 0)  -->
<!DOCTYPE svg PUBLIC "-//W3C//DTD SVG 1.1//EN" "http://www.w3.org/Graphics/SVG/1.1/DTD/svg11.dtd">
<svg version="1.1" id="Icons" xmlns="http://www.w3.org/2000/svg" xmlns:xlink="http://www.w3.org/1999/xlink" x="0px" y="0px"
	 width="100px" height="100px" viewBox="0 0 100 100" style="enable-background:new 0 0 100 100;" xml:space="preserve">
<path id="Behance" d="M86.278,29.925H63.726v-5.602h22.553V29.925z M48.714,52.895c1.455,2.253,2.182,4.99,2.182,8.202
	c0,3.323-0.82,6.303-2.488,8.936c-1.061,1.743-2.378,3.214-3.961,4.398c-1.783,1.371-3.894,2.31-6.32,2.812
	C35.693,77.746,33.058,78,30.22,78H5V22h27.045c6.817,0.111,11.65,2.086,14.504,5.965c1.712,2.379,2.561,5.233,2.561,8.551
	c0,3.424-0.859,6.163-2.588,8.245c-0.962,1.167-2.383,2.228-4.264,3.186C45.107,48.99,47.269,50.633,48.714,52.895z M17.915,44.078
	h11.85c2.435,0,4.404-0.463,5.92-1.388c1.515-0.924,2.271-2.566,2.271-4.924c0-2.605-1.001-4.334-3.008-5.166
	c-1.725-0.578-3.932-0.876-6.61-0.876H17.915V44.078z M39.097,60.298c0-2.91-1.189-4.92-3.562-5.999
	c-1.327-0.614-3.199-0.927-5.6-0.949H17.915v14.923h11.834c2.431,0,4.313-0.318,5.671-0.982
	C37.869,66.07,39.097,63.747,39.097,60.298z M94.644,51.188c0.273,1.832,0.396,4.49,0.346,7.964H65.784
	c0.162,4.032,1.553,6.851,4.193,8.464c1.591,1.012,3.521,1.506,5.781,1.506c2.382,0,4.325-0.603,5.82-1.841
	c0.815-0.656,1.534-1.583,2.155-2.751h10.704c-0.28,2.38-1.569,4.795-3.885,7.25c-3.589,3.899-8.623,5.856-15.086,5.856
	c-5.34,0-10.046-1.65-14.131-4.937c-4.072-3.298-6.116-8.648-6.116-16.069c0-6.959,1.836-12.285,5.52-15.993
	c3.696-3.714,8.468-5.563,14.35-5.563c3.486,0,6.629,0.623,9.432,1.876c2.796,1.254,5.105,3.228,6.925,5.94
	C93.092,45.279,94.151,48.041,94.644,51.188z M84.108,52.233c-0.197-2.788-1.128-4.898-2.803-6.34
	c-1.663-1.446-3.739-2.172-6.216-2.172c-2.697,0-4.778,0.776-6.258,2.301c-1.489,1.522-2.416,3.591-2.796,6.211H84.108z"/>
</svg>

<?xml version="1.0" encoding="UTF-8" standalone="no"?>
<!DOCTYPE svg PUBLIC "-//W3C//DTD SVG 1.1//EN" "http://www.w3.org/Graphics/SVG/1.1/DTD/svg11.dtd">
<svg width="100%" height="100%" viewBox="0 0 100 100" version="1.1" xmlns="http://www.w3.org/2000/svg" xmlns:xlink="http://www.w3.org/1999/xlink" xml:space="preserve" xmlns:serif="http://www.serif.com/" style="fill-rule:evenodd;clip-rule:evenodd;stroke-linejoin:round;stroke-miterlimit:2;">
    <path id="Behance" d="M86.279,29.925L63.726,29.925L63.726,24.323L86.279,24.323L86.279,29.925ZM48.714,52.895C50.169,55.148 50.896,57.885 50.896,61.097C50.896,64.42 50.076,67.4 48.408,70.033C47.347,71.776 46.03,73.247 44.447,74.431C42.664,75.802 40.553,76.741 38.127,77.243C35.693,77.746 33.058,78 30.22,78L5,78L5,22L32.045,22C38.862,22.111 43.695,24.086 46.549,27.965C48.261,30.344 49.11,33.198 49.11,36.516C49.11,39.94 48.251,42.679 46.522,44.761C45.56,45.928 44.139,46.989 42.258,47.947C45.107,48.99 47.269,50.633 48.714,52.895ZM17.915,44.078L29.765,44.078C32.2,44.078 34.169,43.615 35.685,42.69C37.2,41.766 37.956,40.124 37.956,37.766C37.956,35.161 36.955,33.432 34.948,32.6C33.223,32.022 31.016,31.724 28.338,31.724L17.915,31.724L17.915,44.078ZM39.097,60.298C39.097,57.388 37.908,55.378 35.535,54.299C34.208,53.685 32.336,53.372 29.935,53.35L17.915,53.35L17.915,68.273L29.749,68.273C32.18,68.273 34.062,67.955 35.42,67.291C37.869,66.07 39.097,63.747 39.097,60.298Z" style="fill-rule:nonzero;"/>
</svg>
